X:1
T:Title
%%score 1 2
L:1/8
Q:1/4=105
M:4/4
K:C
V:1 treble nm="Grand Piano, Soprano"
V:2 bass nm="Choir Pad, Bells of Christmas"
V:1
 [Ed]2 [EB]2 [EA]2 [EG]2 | [EA]2 [CE]>[C_E] [C=E]4 | [Ec]2 [EB]2 [EA]2 [EG]2 | %3
w: By~Roy~E.~Nolte,~1916 * * *|||
 [FA]2 [DF]>[^CE] [DF]4 | [Bd]2 [Ac]2 [GB]2 [FA]2 | [DF]>[^CE] [DF][EG] [FA]4 | %6
w: |||
 [FB]2 [FA]2 [EG]2 [DF]2 | [CE]>[B,D] [CE][DF] [EG]4 | [Ec]2 [EB]2 [EA]2 [EG]2 | %9
w: |||
 [EA]2 [CE]>[C_E] [C=E]4 | [Ec]2 [EB]2 [Gd]2 [Gc]2 | [FA]>[F^G] [FA][FB] [FA]4 | %12
w: |||
 [Bd]2 [Ac]2 [GB]2 [FA]2 | [Ec]2 [EG]2 [_E^F]2 [=EG]2 | [Ge]4 [Fd]4 | [Ec]4- [Ec]G[^FA][=FB] | %16
w: ||||
 [Ec]4 [EB]4 | [CE]4- [CE]G[^FA][=FB] | [Ec]4 [EB]4 | [B,F]4- [B,F]G[GB][Ac] | [Bd]4 [Ac]4 | %21
w: |||||
 [GB]4- [GB][FA][GB][Ac] | [GB]4 [FA]4 | [EG]4- [EG]G[^FA][=FB] | [Ec]4 [EB]4 | %25
w: ||||
 [CE]4- [CE]G[^FA][=FB] | [Ec]4 [EG^c]4 | [Fd]4- [Fd][FA][E^G][FA] | [Bd]2 [Ac]2 [GB]2 [FA]2 | %29
w: ||||
 [Ec]2 [EG]2 [_E^F]2 [=EG]2 | [Fe]4 [Fd]4 | [Ec]8 |] %32
w: |||
V:2
 [C,G,]2 [G,,G,]2 [C,G,]2 [G,,G,]2 | [C,G,]2 [G,,G,]2 [C,G,]E,F,E, | %2
 [C,G,]2 [G,,G,]2 [C,G,]2 [G,,G,]2 | [C,G,]2 [G,,G,]2 [D,G,]G,,B,,D, | G,,2 G,2 G,,2 G,2 | %5
 G,,2 G,2 G,,B,,D,G, | G,,2 G,2 G,,2 G,2 | C,>F, E,D, C,E,G,E, | %8
 [C,G,]2 [G,,G,]2 [C,G,]2 [G,,G,]2 | [C,G,]2 [G,,G,]2 [C,G,]E,G,E, | [C,G,]4 [E,C]4 | %11
 [F,C]2 [F,C]2 F,A,DG, | F,2 [A,D]2 F,2 [A,D]2 | G,2 [G,C]2 [^G,C]2 [=G,C]2 | %14
 [C,C]2 [G,,G,]2 [A,,A,]2 [B,,B,]2 | [C,C]2 [G,,G,]2 .[C,,C,]2 z2 | %16
 [C,G,]2 [G,,G,]2 [C,G,]2 [G,,G,]2 | [C,G,]F,G,F, .[C,G,]2 z2 | [C,G,]2 [G,,G,]2 [C,G,]2 [G,,G,]2 | %19
 [D,G,]G,,B,,D, .G,2 z2 | G,,2 G,2 G,,2 G,2 | G,,A,,B,,D, .G,2 z2 | G,,2 G,2 G,,2 G,2 | %23
 C,D,E,G, .C2 z2 | [C,G,]2 [G,,G,]2 [C,G,]2 [G,,G,]2 | [C,G,]E,G,E, .C,2 z2 | [C,G,]4 [E,G,A,^C]4 | %27
 [F,A,D]A,DA, .F,2 z2 | F,,2 F,2 F,,2 F,2 | G,,2 [G,C]2 [^G,C]2 [=G,C]2 | %30
 [C,C]2 [G,,G,]2 [A,,A,]2 [B,,B,]2 | [C,C]A,G,E, [C,G,]4 |] %32

